packages/foundations/assets/icons/functional/images/devices/mobile_phone_disabled_24.svg

<svg width="24" height="24" viewBox="0 0 24 24" fill="none" xmlns="http://www.w3.org/2000/svg">
<g clip-path="url(#clip0_185_737)">
<path fill-rule="evenodd" clip-rule="evenodd" d="M2.97034 19.9969C2.97034 19.7151 3.09553 19.4647 3.28333 19.277L6.00002 16.554V4.97344C6.00002 3.31455 7.35217 2 9.01096 2H15.0203C16.5227 2 18 3 18 4.5665L19.3083 3.25195C19.5274 3.06416 19.7778 2.97031 20.0281 2.97031C20.5915 2.97031 21.0297 3.4085 21.0297 3.97188C21.0297 4.25352 20.9045 4.47266 20.7167 4.66045L4.69172 20.6854C4.50393 20.8732 4.25354 20.9984 3.9719 20.9984C3.40852 20.9984 2.97034 20.5289 2.97034 19.9969ZM7.00784 21.2175L8.44758 19.8091C8.60413 19.9343 8.78098 20.0281 9.00002 20.0281H15C15.5634 20.0281 16 19.5587 16 19.0266V12.2034L18 10.2003V19.0266C18 20.6854 16.6589 22 15 22H9.00002C8.24885 22 7.57121 21.7183 7.00784 21.2175ZM8.00002 14.579L16 6.5665V5.00156C16 4.46943 15.5625 4 15 4H14C14 4.56338 13.5313 5.00156 13 5.00156H11C10.4375 5.00156 10 4.56338 10 4H9.00002C8.43752 4 8.00002 4.46943 8.00002 5.00156V14.579ZM10.4507 17.7841L12.2348 16H13.0172C13.5493 16 14.0188 16.4382 14.0188 16.9703C14.0188 17.5337 13.5493 18.0031 13.0172 18.0031H11.0141C10.8263 18.0031 10.6072 17.9093 10.4507 17.7841Z" fill="#1A1C1F"/>
</g>
<defs>
<clipPath id="clip0_185_737">
<rect width="24" height="24" fill="white"/>
</clipPath>
</defs>
</svg>

<svg xmlns="http://www.w3.org/2000/svg" width="24" height="24" fill="none"><g clip-path="url(#a)"><path fill="#1A1C1F" fill-rule="evenodd" d="M2.97 19.997c0-.282.126-.532.313-.72L6 16.554V4.974C6 3.313 7.352 2 9.011 2h6.01C16.522 2 18 3 18 4.566l1.308-1.314c.22-.188.47-.282.72-.282a.99.99 0 0 1 1.002 1.002c0 .282-.126.5-.313.688L4.692 20.685a1.02 1.02 0 0 1-.72.313c-.563 0-1.002-.47-1.002-1.001m4.038 1.22 1.44-1.408c.156.125.333.22.552.22h6c.563 0 1-.47 1-1.002v-6.824l2-2.003v8.827C18 20.685 16.659 22 15 22H9c-.751 0-1.429-.282-1.992-.782M8 14.58l8-8.013V5.002C16 4.469 15.563 4 15 4h-1c0 .563-.469 1.002-1 1.002h-2c-.562 0-1-.439-1-1.002H9c-.562 0-1 .47-1 1.002zm2.45 3.205L12.236 16h.782c.532 0 1.002.438 1.002.97 0 .564-.47 1.033-1.002 1.033h-2.003a.98.98 0 0 1-.563-.219" clip-rule="evenodd"/></g><defs><clipPath id="a"><path fill="#fff" d="M0 0h24v24H0z"/></clipPath></defs></svg>
